X: 135
T: Kissufim
O: Israel
C: Aharon Amram 1960
D: D: Hadarim LP-3 Back from Israel
M: 2/4
L: 1/8
K: Bphr
Q: 1/4=120
EB2B|B2B2|cBAc |B4  |\
AB2c|B2A2|GAGF |F4  :|
EF2G|A2B2|AB2A |G2F2|\
DE2F|E2D2|CDCB,|B,4 :|



